!!!COM: Chopin, Frederic
!!!CDT: 1810///-1849///
!!!OTL: Mazurka in B-flat Minor, Op. 24, No. 4
!!!OPS: Op. 24
!!!ONM: No. 4
!!!OMD: Moderato
!!!ODT: 1833///
!!!PDT: 1836///
!!!PPP: Leipzig, Paris and London
!!!ODE: Count de Perthuis
**kern	**kern	**dynam
*thru	*thru	*thru
*staff2	*staff1	*staff1/2
*Ipiano	*Ipiano	*Ipiano
*>A	*>A	*>A
*clefF4	*clefG2	*clefG2
*k[b-e-a-d-g-]	*k[b-e-a-d-g-]	*k[b-e-a-d-g-]
*b-:	*b-:	*b-:
*M3/4	*M3/4	*M3/4
*MM138	*MM138	*MM138
*	*^	*
=13	=13	=13
*	*^	*
4BB-'/	4.dd-/	4.f\	p
4F\ 4e-\	.	.	.
.	8an/L	8g-\L	.
4F\ 4e-\	8dd-/	8f\	.
.	8a/J	8e-\J	.
=14	=14	=14	=14
4BB-'/	(8.an/L	8.e-\L	.
.	16b-/Jk	16d-\Jk	.
4F\ 4B-\	4b-/)	4d-\	.
4E-\ 4d-\	4b-^/	4gn\	.
=15	=15	=15	=15
4AA-/	(4.ff/	4.a-\	<
4A-\ 4g-\	.	.	.
.	8cc/L	8b--\L	.
4A-\ 4g-\	8ff/	8a-\	.
.	8cc/J	8g-\J	>
=16	=16	=16	=16
4D-\	8.cc/L	8.g-\L	.
.	16dd-/Jk	16f\Jk	.
4A-\ 4d-\	4dd-/)	4f\	.
4Gn\ 4f\	4dd-^/	4bn\	.
=17	=17	=17	=17
4C'/	(4.aa-/	4.cc\	.
*clefG2	*	*	*
4c'/ 4b-'/	.	.	.
.	8een/L	8dd-\L	.
4c'/ 4b-'/	8aa-/	8cc\	.
.	8ee/J	8b-\J	.
=18	=18	=18	=18
*clefF4	*	*	*
*^	*	*	*
4r	2F\	8.een/L	8.b-\L	>
.	.	16ff/Jk	16an\Jk	.
4c\ 4f\	.	4ff/	4a'\	.
4F/ 4c/ 4a/	4r	4r	4ff^\ (4fff^\)	.
*v	*v	*	*	*
*	*v	*v	*
=19	=19	=19
4FF/	8.aa-\ 8.aaa-\L	ff
.	16gg-\ 16ggg-\Jk)	.
*clefG2	*	*
4c^/ 4e-^/ 4an^/ 4cc^/	4gg-'\ 4ggg-'\	.
*clefF4	*	*
4F\ 4c\ 4e-\	4an^/	p
=20	=20	=20
4BB-/	2.b-\	.
!!!ENC: Craig Stuart Sapp
!!!END: 2005/03/03/
!!!URL: http://www.chopinsociety.org/maz_rf.htm#maz244 (short description by David Dubal)
!!!URL: http://chopin.lib.uchicago.edu/gsdl/cgi-bin/library?e=d-000-00---0chopin--00-0-0-0prompt-10---4---Document-dtt--0-1l--1-en-Zz-1---50-home-mazurka--001-001-0-0utfZz-8-0&a=d&c=chopin&cl=CL3.10.9 (Early editions of op. 24 at the University of Chicago)
